icons-common/processor.svg

<svg height="1em" width="auto" viewBox="0 0 105 105" fill="currentColor" xmlns="http://www.w3.org/2000/svg">
    <path d="M86.1783 55.7257C88.2629 55.7257 90 54.0556 90 52C90 49.9444 88.2629 48.2315 86.1783 48.2315H81.1407V42.5359H86.1783C88.2629 42.5359 90 40.8657 90 38.8102C90 36.7546 88.2629 35.0417 86.1783 35.0417H79.5773C77.6665 30.6736 74.1054 27.2049 69.7192 25.3206V18.7685C69.7192 16.713 68.0255 15 65.9409 15C63.8564 15 62.1193 16.713 62.1193 18.7685V23.7361H56.2999V18.7685C56.2999 16.713 54.6063 15 52.5217 15C50.4372 15 48.7001 16.713 48.7001 18.7685V23.7361H42.9241V18.7685C42.9241 16.713 41.2305 15 39.1459 15C37.0614 15 35.3243 16.713 35.3243 18.7685V25.3206C30.8946 27.2049 27.377 30.6736 25.4661 35.0417H18.8217C16.7371 35.0417 15 36.7118 15 38.7674C15 40.8229 16.7371 42.5359 18.8217 42.5359H23.8593V48.2315H18.8217C16.7371 48.2315 15 49.9016 15 51.9572C15 54.0127 16.7371 55.7257 18.8217 55.7257H23.8593V61.4641H18.8217C16.7371 61.4641 15 63.1343 15 65.1898C15 67.2454 16.7371 68.9583 18.8217 68.9583H25.4661C27.377 73.2836 30.8946 76.7951 35.3243 78.6794V85.2315C35.3243 87.287 37.018 89 39.1025 89C41.187 89 42.9241 87.287 42.9241 85.2315V80.2211H48.7001V85.2315C48.7001 87.287 50.3937 89 52.4783 89C54.5628 89 56.2999 87.287 56.2999 85.2315V80.2211H62.1193V85.2315C62.1193 87.287 63.813 89 65.8975 89C67.9821 89 69.7192 87.287 69.7192 85.2315V78.6794C74.1054 76.7951 77.6665 73.2836 79.5773 68.9583H86.1783C88.2629 68.9583 90 67.2882 90 65.2326C90 63.1771 88.2629 61.4641 86.1783 61.4641H81.1407V55.7257H86.1783ZM73.5408 61.5069C73.5408 64.3762 72.4551 66.9884 70.6312 68.9583C70.3706 69.3009 70.0666 69.6007 69.7192 69.8576C67.7215 71.6562 65.0724 72.7268 62.1627 72.7268H42.8807C39.971 72.7268 37.3219 71.6562 35.3243 69.9005C34.9768 69.6007 34.6728 69.3009 34.3688 68.9583C32.5883 66.9884 31.4592 64.3762 31.4592 61.5069V42.4931C31.4592 39.6238 32.5449 37.0116 34.3254 35.0417C34.6294 34.6991 34.9768 34.3565 35.3243 34.0567C37.3219 32.3009 39.971 31.2303 42.8807 31.2303H62.1627C65.0724 31.2303 67.7215 32.3438 69.7192 34.0995C70.0666 34.3993 70.3706 34.6991 70.6746 35.0417C72.4551 37.0116 73.5408 39.6238 73.5408 42.4931V61.5069Z"
          />
    <path d="M57.0815 65.5326H47.9616C42.924 65.5326 38.7983 61.4643 38.7983 56.4967V47.5037C38.7983 42.5361 42.924 38.4678 47.9616 38.4678H57.0815C62.1191 38.4678 66.2448 42.5361 66.2448 47.5037V56.4967C66.2448 61.4643 62.1191 65.5326 57.0815 65.5326ZM47.9616 42.3219C45.052 42.3219 42.7069 44.6344 42.7069 47.5037V56.4967C42.7069 59.3659 45.052 61.6784 47.9616 61.6784H57.0815C59.9912 61.6784 62.3363 59.3659 62.3363 56.4967V47.5037C62.3363 44.6344 59.9912 42.3219 57.0815 42.3219H47.9616Z"
          />
</svg>

<svg xmlns="http://www.w3.org/2000/svg" width="auto" height="1em" fill="currentColor" viewBox="0 0 105 105">
    <path d="M86.178 55.726C88.263 55.726 90 54.056 90 52s-1.737-3.769-3.822-3.769h-5.037v-5.695h5.037c2.085 0 3.822-1.67 3.822-3.726s-1.737-3.768-3.822-3.768h-6.6c-1.912-4.368-5.473-7.837-9.859-9.721v-6.553c0-2.055-1.694-3.768-3.778-3.768s-3.822 1.713-3.822 3.768v4.968H56.3v-4.968c0-2.055-1.693-3.768-3.777-3.768S48.7 16.713 48.7 18.768v4.968h-5.776v-4.968c0-2.055-1.694-3.768-3.778-3.768s-3.822 1.713-3.822 3.768v6.553c-4.43 1.884-7.947 5.353-9.858 9.72h-6.644c-2.085 0-3.822 1.67-3.822 3.726s1.737 3.769 3.822 3.769h5.037v5.695h-5.037c-2.085 0-3.822 1.67-3.822 3.726s1.737 3.769 3.822 3.769h5.037v5.738h-5.037c-2.085 0-3.822 1.67-3.822 3.726s1.737 3.768 3.822 3.768h6.644a18.88 18.88 0 0 0 9.858 9.721v6.552c0 2.056 1.694 3.769 3.779 3.769s3.821-1.713 3.821-3.769v-5.01H48.7v5.01c0 2.056 1.694 3.769 3.778 3.769s3.822-1.713 3.822-3.769v-5.01h5.82v5.01c0 2.056 1.693 3.769 3.777 3.769s3.822-1.713 3.822-3.769V78.68c4.386-1.884 7.948-5.395 9.858-9.72h6.601c2.085 0 3.822-1.67 3.822-3.726s-1.737-3.769-3.822-3.769h-5.037v-5.738zm-12.637 5.78c0 2.87-1.086 5.482-2.91 7.452q-.39.515-.912.9c-1.997 1.798-4.647 2.869-7.556 2.869H42.88a11.4 11.4 0 0 1-7.557-2.827c-.347-.3-.651-.6-.955-.942-1.78-1.97-2.91-4.582-2.91-7.451V42.493c0-2.87 1.086-5.481 2.866-7.451.304-.343.652-.686 1-.985a11.4 11.4 0 0 1 7.556-2.827h19.282c2.91 0 5.559 1.114 7.556 2.87.348.3.652.6.956.942a11.07 11.07 0 0 1 2.866 7.451z"/>
    <path d="M57.082 65.533h-9.12c-5.038 0-9.164-4.069-9.164-9.036v-8.993c0-4.968 4.126-9.036 9.164-9.036h9.12c5.037 0 9.163 4.068 9.163 9.036v8.993c0 4.967-4.126 9.036-9.164 9.036m-9.12-23.211c-2.91 0-5.255 2.312-5.255 5.182v8.993c0 2.869 2.345 5.181 5.255 5.181h9.12c2.91 0 5.254-2.312 5.254-5.181v-8.993c0-2.87-2.345-5.182-5.254-5.182z"/>
</svg>
